public/logos/AF.svg

<?xml version="1.0" encoding="UTF-8"?>
<svg xmlns="http://www.w3.org/2000/svg" xmlns:xlink="http://www.w3.org/1999/xlink" width="176pt" height="15.15pt" viewBox="0 0 176 15.15" version="1.1">
<defs>
<clipPath id="clip1">
  <path d="M 153 0 L 176 0 L 176 15 L 153 15 Z M 153 0 "/>
</clipPath>
<clipPath id="clip2">
  <path d="M 166.574219 0 L 158.671875 11.4375 C 157.628906 12.941406 155.941406 14.390625 153.898438 14.546875 L 153.898438 14.898438 L 162.691406 14.898438 C 165.027344 14.898438 166.730469 13.378906 167.882812 11.703125 L 176 0 L 166.574219 0 "/>
</clipPath>
<clipPath id="clip3">
  <path d="M 153.898438 14.546875 C 155.21875 14.445312 156.390625 13.804688 157.335938 12.957031 C 156.390625 13.804688 155.21875 14.445312 153.898438 14.546875 M 165.15625 14.277344 C 166.28125 13.679688 167.183594 12.71875 167.882812 11.703125 L 176 0 L 167.882812 11.703125 C 167.183594 12.71875 166.28125 13.679688 165.15625 14.277344 "/>
</clipPath>
<image id="image5" width="49" height="33" xlink:href="data:image/png;base64,iVBORw0KGgoAAAANSUhEUgAAADEAAAAhCAIAAAD/KNTQAAAABmJLR0QA/wD/AP+gvaeTAAAAg0lEQVRYhe3WOQ7AMAhE0SSa+x/Wm2zH2OlRCrqh4J/gaWi4zzmXsx424Kcw2QqTrTDZCpOtMNkKk60w2YLD/wnboUlksw06nC1sgw4i/kzrXWyDDnNOtkGHd/kzjdHZBh16H2yDDt3hTq00tkGH0irboEN1uFMqmW3QIWV/t0vZ3U4fRx40+quQ1asAAAAASUVORK5CYII="/>
<clipPath id="clip4">
  <path d="M 153 0 L 176 0 L 176 15 L 153 15 Z M 153 0 "/>
</clipPath>
<clipPath id="clip5">
  <path d="M 166.574219 0 L 158.671875 11.4375 C 157.628906 12.941406 155.941406 14.390625 153.898438 14.546875 L 153.898438 14.898438 L 162.691406 14.898438 C 165.027344 14.898438 166.730469 13.378906 167.882812 11.703125 L 176 0 L 166.574219 0 "/>
</clipPath>
<clipPath id="clip6">
  <path d="M 162.691406 14.898438 L 153.898438 14.898438 L 153.898438 14.546875 C 155.21875 14.445312 156.390625 13.804688 157.335938 12.957031 C 157.851562 12.492188 158.300781 11.96875 158.671875 11.4375 L 166.574219 0 L 176 0 L 167.882812 11.703125 C 167.183594 12.71875 166.28125 13.679688 165.15625 14.277344 C 164.429688 14.660156 163.609375 14.898438 162.691406 14.898438 "/>
</clipPath>
<image id="image8" width="49" height="34" xlink:href="data:image/png;base64,iVBORw0KGgoAAAANSUhEUgAAADEAAAAiCAIAAAB5vKZ+AAAABmJLR0QA/wD/AP+gvaeTAAAAfElEQVRYhe3Wuw3AIAxFUYi8Rtrsv1fKiHykYNLjFO58C98Jjh4IUfd1K7CWaMBPafKVJl9p8pUmX2nylSZfMqIFNuZOvKFEKw4liiMh77j0Gk0wyRstsDFNwLN7ogU2pOnmPeRyFZ6pAXc6gaY2NNowJ4cSTT3aMEf8Z35RAiMUXxXclAAAAABJRU5ErkJggg=="/>
<clipPath id="clip7">
  <path d="M 0 1 L 150 1 L 150 15.148438 L 0 15.148438 Z M 0 1 "/>
</clipPath>
</defs>
<g id="surface1">
<path style=" stroke:none;fill-rule:nonzero;fill:rgb(92.262268%,11.434937%,15.112305%);fill-opacity:1;" d="M 166.574219 0 L 158.667969 11.4375 C 157.628906 12.941406 155.941406 14.390625 153.898438 14.546875 L 153.898438 14.898438 L 162.691406 14.898438 C 165.027344 14.898438 166.730469 13.375 167.882812 11.703125 L 176 0 L 166.574219 0 "/>
<g clip-path="url(#clip1)" clip-rule="nonzero">
<g clip-path="url(#clip2)" clip-rule="nonzero">
<g clip-path="url(#clip3)" clip-rule="nonzero">
<use xlink:href="#image5" transform="matrix(0.482041,0,0,0.485455,153.09,-0.56)"/>
</g>
</g>
</g>
<g clip-path="url(#clip4)" clip-rule="nonzero">
<g clip-path="url(#clip5)" clip-rule="nonzero">
<g clip-path="url(#clip6)" clip-rule="nonzero">
<use xlink:href="#image8" transform="matrix(0.482041,0,0,0.482941,153.09,-0.56)"/>
</g>
</g>
</g>
<g clip-path="url(#clip7)" clip-rule="nonzero">
<path style=" stroke:none;fill-rule:nonzero;fill:rgb(11.553955%,15.623474%,31.448364%);fill-opacity:1;" d="M 86.589844 9.058594 L 90.921875 9.058594 L 88.671875 4.898438 Z M 94.226562 14.898438 L 92.527344 11.902344 L 85.097656 11.902344 L 83.566406 14.898438 L 79.867188 14.898438 L 87.265625 1.269531 L 90.625 1.269531 L 98.992188 14.898438 Z M 6.90625 9.058594 L 11.347656 9.058594 L 9.042969 4.898438 Z M 14.753906 14.898438 L 13.007812 11.902344 L 5.386719 11.902344 L 3.796875 14.898438 L 0 14.898438 L 7.59375 1.269531 L 11.054688 1.269531 L 19.660156 14.898438 Z M 36.902344 7.527344 C 38.476562 7.527344 39.238281 6.726562 39.238281 5.828125 C 39.238281 4.925781 38.5625 4.179688 36.902344 4.179688 L 32.667969 4.179688 L 32.667969 7.527344 Z M 40.082031 9.777344 L 45.582031 14.898438 L 41.332031 14.898438 C 40.390625 14.898438 39.773438 14.601562 39.28125 14.125 L 35.539062 10.496094 C 35.46875 10.425781 35.355469 10.382812 35.214844 10.382812 L 32.667969 10.382812 L 32.667969 14.898438 L 28.691406 14.898438 L 28.691406 1.253906 L 37.3125 1.253906 C 41.785156 1.253906 43.667969 3.265625 43.667969 5.488281 C 43.667969 8.074219 41.363281 9.3125 40.082031 9.777344 M 71.066406 7.527344 C 72.640625 7.527344 73.398438 6.726562 73.398438 5.828125 C 73.398438 4.925781 72.722656 4.179688 71.066406 4.179688 L 66.832031 4.179688 L 66.832031 7.527344 Z M 74.242188 9.777344 L 79.742188 14.898438 L 75.492188 14.898438 C 74.550781 14.898438 73.933594 14.601562 73.441406 14.125 L 69.699219 10.496094 C 69.628906 10.425781 69.515625 10.382812 69.378906 10.382812 L 66.832031 10.382812 L 66.832031 14.898438 L 62.851562 14.898438 L 62.851562 1.253906 L 71.472656 1.253906 C 75.945312 1.253906 77.828125 3.265625 77.828125 5.488281 C 77.828125 8.074219 75.523438 9.3125 74.242188 9.777344 M 135.984375 14.898438 L 135.984375 1.253906 L 149.792969 1.253906 L 149.792969 4.179688 L 139.964844 4.179688 L 139.964844 6.542969 L 149.636719 6.542969 L 149.636719 9.46875 L 139.964844 9.46875 L 139.964844 11.96875 L 149.75 11.96875 L 149.75 14.898438 Z M 47.113281 14.898438 L 47.113281 1.253906 L 60.417969 1.253906 L 60.417969 4.179688 L 51.09375 4.179688 L 51.09375 7.570312 L 60.207031 7.570312 L 60.207031 10.496094 L 51.09375 10.496094 L 51.09375 14.898438 Z M 133.578125 5.660156 C 131.777344 4.773438 129.753906 4.054688 127.066406 4.054688 C 123.859375 4.054688 121.46875 5.714844 121.46875 8.019531 C 121.46875 10.382812 123.902344 12.054688 127.039062 12.054688 C 129.628906 12.054688 131.679688 11.394531 133.703125 10.226562 L 133.703125 13.601562 C 131.917969 14.488281 129.542969 15.148438 126.867188 15.148438 C 121.410156 15.148438 117.121094 12.363281 117.121094 8.019531 C 117.121094 3.746094 121.496094 1 126.855469 1 C 129.386719 1 131.679688 1.480469 133.578125 2.253906 Z M 112.777344 14.898438 L 103.214844 6.796875 L 103.214844 14.898438 L 99.851562 14.898438 L 99.851562 1.253906 L 102.710938 1.253906 L 112.144531 9.230469 L 112.144531 1.253906 L 115.503906 1.253906 L 115.503906 14.898438 Z M 20.984375 1.253906 L 24.964844 1.253906 L 24.964844 14.898438 L 20.984375 14.898438 L 20.984375 1.253906 "/>
</g>
</g>
</svg>

<svg xmlns="http://www.w3.org/2000/svg" xmlns:xlink="http://www.w3.org/1999/xlink" width="176pt" height="20.2" viewBox="0 0 176 15.15"><defs><clipPath id="a"><path d="M153 0h23v15h-23Zm0 0"/></clipPath><clipPath id="b"><path d="m166.574 0-7.902 11.438c-1.043 1.503-2.73 2.953-4.774 3.109v.351h8.793c2.336 0 4.04-1.52 5.192-3.195L176 0z"/></clipPath><clipPath id="c"><path d="M153.898 14.547c1.32-.102 2.493-.742 3.438-1.59-.945.848-2.117 1.488-3.438 1.59m11.258-.27c1.125-.597 2.028-1.558 2.727-2.574L176 0l-8.117 11.703c-.7 1.016-1.602 1.977-2.727 2.574"/></clipPath><clipPath id="e"><path d="M153 0h23v15h-23Zm0 0"/></clipPath><clipPath id="f"><path d="m166.574 0-7.902 11.438c-1.043 1.503-2.73 2.953-4.774 3.109v.351h8.793c2.336 0 4.04-1.52 5.192-3.195L176 0z"/></clipPath><clipPath id="g"><path d="M162.691 14.898h-8.793v-.351c1.32-.102 2.493-.742 3.438-1.59a9 9 0 0 0 1.336-1.52L166.574 0H176l-8.117 11.703c-.7 1.016-1.602 1.977-2.727 2.574a5.2 5.2 0 0 1-2.465.621"/></clipPath><clipPath id="i"><path d="M0 1h150v14.148H0Zm0 0"/></clipPath><image xlink:href="data:image/png;base64,iVBORw0KGgoAAAANSUhEUgAAADEAAAAhCAIAAAD/KNTQAAAABmJLR0QA/wD/AP+gvaeTAAAAg0lEQVRYhe3WOQ7AMAhE0SSa+x/Wm2zH2OlRCrqh4J/gaWi4zzmXsx424Kcw2QqTrTDZCpOtMNkKk60w2YLD/wnboUlksw06nC1sgw4i/kzrXWyDDnNOtkGHd/kzjdHZBh16H2yDDt3hTq00tkGH0irboEN1uFMqmW3QIWV/t0vZ3U4fRx40+quQ1asAAAAASUVORK5CYII=" id="d" width="49" height="33"/><image xlink:href="data:image/png;base64,iVBORw0KGgoAAAANSUhEUgAAADEAAAAiCAIAAAB5vKZ+AAAABmJLR0QA/wD/AP+gvaeTAAAAfElEQVRYhe3Wuw3AIAxFUYi8Rtrsv1fKiHykYNLjFO58C98Jjh4IUfd1K7CWaMBPafKVJl9p8pUmX2nylSZfMqIFNuZOvKFEKw4liiMh77j0Gk0wyRstsDFNwLN7ogU2pOnmPeRyFZ6pAXc6gaY2NNowJ4cSTT3aMEf8Z35RAiMUXxXclAAAAABJRU5ErkJggg==" id="h" width="49" height="34"/></defs><path d="m166.574 0-7.906 11.438c-1.04 1.503-2.727 2.953-4.77 3.109v.351h8.793c2.336 0 4.04-1.523 5.192-3.195L176 0z" style="stroke:none;fill-rule:nonzero;fill:#eb1d27;fill-opacity:1"/><g clip-path="url(#a)"><g clip-path="url(#b)"><g clip-path="url(#c)"><use xlink:href="#d" transform="matrix(.48204 0 0 .48546 153.09 -.56)"/></g></g></g><g clip-path="url(#e)"><g clip-path="url(#f)"><g clip-path="url(#g)"><use xlink:href="#h" transform="matrix(.48204 0 0 .48294 153.09 -.56)"/></g></g></g><g clip-path="url(#i)"><path d="M86.59 9.059h4.332l-2.25-4.16Zm7.637 5.84-1.7-2.997h-7.43l-1.53 2.996h-3.7L87.266 1.27h3.359l8.367 13.628Zm-87.32-5.84h4.44l-2.304-4.16Zm7.847 5.84-1.746-2.997H5.387l-1.59 2.996H0L7.594 1.27h3.46l8.606 13.628Zm22.148-7.372c1.575 0 2.336-.8 2.336-1.699 0-.902-.675-1.648-2.336-1.648h-4.234v3.347Zm3.18 2.25 5.5 5.121h-4.25c-.941 0-1.559-.296-2.05-.773l-3.743-3.629a.45.45 0 0 0-.324-.113h-2.547v4.515h-3.977V1.254h8.622c4.472 0 6.355 2.012 6.355 4.234 0 2.586-2.305 3.824-3.586 4.29m30.984-2.25c1.575 0 2.332-.801 2.332-1.7 0-.902-.675-1.648-2.332-1.648h-4.234v3.347Zm3.176 2.25 5.5 5.12h-4.25c-.941 0-1.558-.296-2.05-.773l-3.743-3.629a.45.45 0 0 0-.32-.113h-2.547v4.515h-3.98V1.254h8.62c4.473 0 6.356 2.012 6.356 4.234 0 2.586-2.305 3.824-3.586 4.29m61.742 5.12V1.254h13.809V4.18h-9.828v2.363h9.672v2.926h-9.672v2.5h9.785v2.93Zm-88.87 0V1.254h13.304V4.18h-9.324v3.39h9.113v2.926h-9.113v4.402Zm86.464-9.238c-1.8-.887-3.824-1.605-6.512-1.605-3.207 0-5.597 1.66-5.597 3.965 0 2.363 2.433 4.035 5.57 4.035 2.59 0 4.64-.66 6.664-1.828v3.375c-1.785.886-4.16 1.546-6.836 1.546-5.457 0-9.746-2.785-9.746-7.128 0-4.274 4.375-7.02 9.734-7.02 2.532 0 4.825.48 6.723 1.254Zm-20.8 9.238-9.563-8.101v8.101h-3.363V1.254h2.859l9.434 7.976V1.254h3.359v13.644ZM20.983 1.254h3.98v13.644h-3.98z" style="stroke:none;fill-rule:nonzero;fill:#1d2850;fill-opacity:1"/></g></svg>
